packages/core/src/svgs/tokens/mono/LPT.svg

<svg width="24" height="24" viewBox="0 0 24 24" fill="none" xmlns="http://www.w3.org/2000/svg">
<path d="M6.66676 2H2.66675V6.00001H6.66676V2ZM6.66676 9.99995H2.66675V14.0001H6.66676V9.99995ZM2.66675 18H6.66676V22H2.66675V18ZM14.0014 14.0001H10.0001V18.0014H14.0014V14.0001ZM10.0001 6.00001H14.0002V9.99995H10.0001V6.00001ZM21.3334 9.99995H17.3334V14.0001H21.3334V9.99995Z" fill="white"/>
</svg>

<svg xmlns="http://www.w3.org/2000/svg" width="24" height="24" fill="none" viewBox="0 0 24 24">
    <path fill="#fff" d="M6.667 2h-4v4h4zm0 8h-4v4h4zm-4 8h4v4h-4zM14 14h-4v4.001h4zm-4-8h4v4h-4zm11.332 4h-4v4h4z"/>
</svg>
